src/assets/img/dist/icons/ConnectLine-mobile.svg

<svg width="329" height="571" viewBox="0 0 329 571" fill="none" xmlns="http://www.w3.org/2000/svg">
<path d="M3.33333 11C3.33333 16.891 8.10896 21.6667 14 21.6667C19.891 21.6667 24.6667 16.891 24.6667 11C24.6667 5.10896 19.891 0.333333 14 0.333333C8.10896 0.333333 3.33333 5.10896 3.33333 11ZM312.586 136.414C313.367 137.195 314.633 137.195 315.414 136.414L328.142 123.686C328.923 122.905 328.923 121.639 328.142 120.858C327.361 120.077 326.095 120.077 325.314 120.858L314 132.172L302.686 120.858C301.905 120.077 300.639 120.077 299.858 120.858C299.077 121.639 299.077 122.905 299.858 123.686L312.586 136.414ZM14 13H196V9H14V13ZM312 129V135H316V129H312ZM196 13C260.065 13 312 64.935 312 129H316C316 62.7258 262.274 9 196 9V13Z" fill="#B98CFF"/>
<path d="M16.4142 349.414C15.6332 350.195 14.3668 350.195 13.5858 349.414L0.857864 336.686C0.0768158 335.905 0.0768158 334.639 0.857864 333.858C1.63891 333.077 2.90524 333.077 3.68629 333.858L15 345.172L26.3137 333.858C27.0948 333.077 28.3611 333.077 29.1421 333.858C29.9232 334.639 29.9232 335.905 29.1421 336.686L16.4142 349.414ZM17 343.25V348H13V343.25H17ZM224.75 227.25H133V223.25H224.75V227.25ZM317 135C317 185.948 275.698 227.25 224.75 227.25V223.25C273.489 223.25 313 183.739 313 135H317ZM13 343.25C13 276.976 66.7258 223.25 133 223.25V227.25C68.935 227.25 17 279.185 17 343.25H13Z" fill="#B98CFF"/>
<path d="M303.333 560C303.333 565.891 308.109 570.667 314 570.667C319.891 570.667 324.667 565.891 324.667 560C324.667 554.109 319.891 549.333 314 549.333C308.109 549.333 303.333 554.109 303.333 560ZM312 555.25V560H316V555.25H312ZM104.25 439.25H196V435.25H104.25V439.25ZM12 347C12 397.948 53.3016 439.25 104.25 439.25V435.25C55.5107 435.25 16 395.739 16 347H12ZM316 555.25C316 488.976 262.274 435.25 196 435.25V439.25C260.065 439.25 312 491.185 312 555.25H316Z" fill="#B98CFF"/>
</svg>

<svg width="329" height="571" fill="none" xmlns="http://www.w3.org/2000/svg"><path d="M3.333 11c0 5.891 4.776 10.667 10.667 10.667S24.667 16.89 24.667 11 19.89.333 14 .333 3.333 5.11 3.333 11zm309.253 125.414a2 2 0 002.828 0l12.728-12.728a2 2 0 10-2.828-2.828L314 132.172l-11.314-11.314a2 2 0 10-2.828 2.828l12.728 12.728zM14 13h182V9H14v4zm298 116v6h4v-6h-4zM196 13c64.065 0 116 51.935 116 116h4C316 62.726 262.274 9 196 9v4z" fill="#B98CFF"/><path d="M16.414 349.414a2 2 0 01-2.828 0L.858 336.686a2 2 0 112.828-2.828L15 345.172l11.314-11.314a2 2 0 012.828 2.828l-12.728 12.728zM17 343.25V348h-4v-4.75h4zm207.75-116H133v-4h91.75v4zM317 135c0 50.948-41.302 92.25-92.25 92.25v-4c48.739 0 88.25-39.511 88.25-88.25h4zM13 343.25c0-66.274 53.726-120 120-120v4c-64.065 0-116 51.935-116 116h-4z" fill="#B98CFF"/><path d="M303.333 560c0 5.891 4.776 10.667 10.667 10.667s10.667-4.776 10.667-10.667-4.776-10.667-10.667-10.667-10.667 4.776-10.667 10.667zm8.667-4.75V560h4v-4.75h-4zm-207.75-116H196v-4h-91.75v4zM12 347c0 50.948 41.302 92.25 92.25 92.25v-4C55.51 435.25 16 395.739 16 347h-4zm304 208.25c0-66.274-53.726-120-120-120v4c64.065 0 116 51.935 116 116h4z" fill="#B98CFF"/></svg>
